X:1
T:Title
%%score { ( 1 3 5 ) | ( 2 4 ) }
L:1/8
M:4/4
K:Ab
V:1 treble nm="Grand Piano"
V:3 treble 
V:5 treble 
V:2 bass 
V:4 bass 
V:1
 z4 z2[Q:1/4=94] [Ec][DB] | [CA]>[CE] [CE][CE] [DF][CE][EA]B | c2 e2 c2 (3EAc | e6 z2 | c6 z2 | %5
 [CA]>[CE] [CE][CE] [DF][CE][EA]B |[M:3/4] c2 e2 c2 |[M:1/4] (3EAc |[M:4/4] e6 z2 | %9
[M:9/8] A6- A z z |[M:4/4] [Fd]>[Fd] [Fd][Fd] [DF][FA][Fd][Fd] | c2 E2 c2 [Ec][Ec] | %12
 B>B BB B[EG][EA][EB] | [Ec]2 d2 c2 (3ABc | [Fd]>[Fd] [Fd][Fd] [DF][FA][Fd][Fd] |[M:3/4] c2 E2 c2 | %16
[M:1/4] (3ABc |[M:4/4] e6 z2 | c6 z2 | [CA]>[CE] [CE][CE] [DF][CE][EA][EA] | %20
[M:9/8] [FB]2 [DF]- [DF] [Fd]2- [Fd]d/ef/ |[M:4/4] e6 z2 |[M:7/8] z7 |] %23
V:2
 z4 z2 [A,,A,][A,,A,] | [A,,A,]>[A,,A,] [A,,A,][A,,A,] [A,,A,][A,,A,][C,A,][E,G,E] | %2
 [A,E]2 [A,CE]2 [A,E]2 z2 | z2 z z/ G/ z4[K:treble] | z8[K:bass] | %5
 [A,,A,]>[A,,A,] [A,,A,][A,,A,] [A,,A,][A,,A,][C,A,][E,G,E] |[M:3/4] [A,E]2 [A,CE]2 [A,E]2 | %7
[M:1/4] z2 |[M:4/4] z2 z z/ G/ z4 |[M:9/8] z3 z3 z A,2 | %10
[M:4/4] [D,A,]>[D,A,] [D,A,][D,A,] [D,A,][D,A,][D,A,][D,A,] | [A,E]2 [A,C]2 [A,E]2 [A,,A,][A,,A,] | %12
 [E,G,E]>[E,G,E] [E,G,E][E,G,E] [E,G,E][D,B,][C,A,][B,,G,] | %13
 [A,,A,]2[K:treble] [A,F]2 [A,E]2 (3[A,-C][A,D][A,E] | %14
 [D,A,]>[D,A,] [D,A,][D,A,] [D,A,][D,A,][D,A,][D,A,] |[M:3/4] [A,E]2 [A,C]2 [A,E]2 |[M:1/4] z2 | %17
[M:4/4] z4 E4- | E2 z2 z4 | [A,,A,]>[A,,A,] [A,,A,][A,,A,] [A,,A,][A,,A,][C,A,][C,A,] | %20
[M:9/8] [D,D]2 [D,B,]- [D,B,] [B,,B,]2- [B,,B,] z z |[M:4/4] z2 z z/ G/ z4[K:treble] | %22
[M:7/8][K:bass] A-A-A- A- A3 |] %23
V:3
 x8 | x8 | x8 | z2 (3:2:2G2 B, [EG]2 (3z Gd | z2 A>A A2 [Ec][DB] | x8 |[M:3/4] x6 |[M:1/4] x2 | %8
[M:4/4] z2 (3:2:2G2 B, [EG]2 (3z GB |[M:9/8] z2 [DF]- [DF]/[DF]/ [CE]2- [CE][CA]/Bc/ |[M:4/4] x8 | %11
 x8 | x8 | x8 | x8 |[M:3/4] x6 |[M:1/4] x2 |[M:4/4] z2 (3:2:2G2 B, G2 (3Bcd | z2 A>A A2 [Ec][DB] | %19
 x8 |[M:9/8] x9 |[M:4/4] z4 G2 z2 |[M:7/8] x7 |] %23
V:4
 x8 | x8 | x8 | z2 (3E,-[E,G,]E, E,2[K:treble] E2- | E2 [A,E]>[A,E] [A,E]2[K:bass] [A,,A,][A,,A,] | %5
 x8 |[M:3/4] x6 |[M:1/4] x2 |[M:4/4] z2 (3E,-[E,G,]E, E,2 E2- | %9
[M:9/8] E2 [A,,A,]- [A,,A,]/[A,,A,]/ [A,,A,]2- [A,,A,] z/ D[A,E]/ |[M:4/4] x8 | x8 | x8 | %13
 x2[K:treble] x6 | x8 |[M:3/4] x6 |[M:1/4] x2 |[M:4/4] z2 (3E,-[E,G,]E, E,2 z2 | %18
 z2 [A,E]>[A,E] [A,E]2 [A,,A,][A,,A,] | x8 |[M:9/8] x9 | %21
[M:4/4] z2 (3E,-[E,G,]E, E,2[K:treble] (3GAB |[M:7/8][K:bass] z2 A,,>A,, A,,3 |] %23
V:5
 x8 | x8 | x8 | x8 | x8 | x8 |[M:3/4] x6 |[M:1/4] x2 |[M:4/4] x8 |[M:9/8] x9 |[M:4/4] x8 | x8 | %12
 x8 | x8 | x8 |[M:3/4] x6 |[M:1/4] x2 |[M:4/4] z2 z z/ G/ z4 | x8 | x8 |[M:9/8] x9 | %21
[M:4/4] z2 (3:2:2G2 B, E4- |[M:7/8] E2 [DF]>[DF] [CE]3 |] %23

